src/parts/graphicShirt/Bat.svg

<svg>
  <g
    id="Clothing/Graphic-Shirt"
    transform="translate(0.000000, 170.000000)"
  >
    <defs>
      <path
        id="react-path-1153"
        d="M165.624032,29.2681342 C202.760022,32.1373245 232,63.1798426 232,101.051724 L232,110 L32,110 L32,101.051724 C32,62.8348009 61.7752018,31.5722494 99.3929298,29.1967444 C99.1342224,30.2735458 99,31.3767131 99,32.5 C99,44.3741221 113.998461,54 132.5,54 C151.001539,54 166,44.3741221 166,32.5 C166,31.4015235 165.871641,30.3222877 165.624025,29.2681336 Z"
      />
    </defs>
    <mask
      id="react-mask-1154"
      fill="white"
    >
      <use href="#react-path-1153" />
    </mask>
    <use
      id="Clothes"
      fill="#E6E6E6"
      fill-rule="evenodd"
      href="#react-path-1153"
    />
    <g
      id="Color/Palette/"
      mask="url(#react-mask-1154)"
      fill-rule="evenodd"
      fill="var(--avataaar-shirt-color)"
    >
      <rect
        id="Color"
        x="0"
        y="0"
        width="264"
        height="110"
      />
    </g>
    <g
      id="Clothing/Graphic/Bat"
      fill-rule="evenodd"
      fill="#FFFFFF"
    >
      <g
        id="Batman!"
        transform="translate(77.000000, 58.000000)"
      >
        <path d="M87.6852404,13.4031978 C86.29151,6.97182978 81.4755637,3.2534243 75.1844381,1.81688169 C72.6586144,1.2402574 64.2721154,-0.570361088 65.5784818,4.22465302 C66.1709196,6.39748644 65.8414841,8.18940114 64.0250388,9.99135202 C62.2550056,11.7463153 58.793658,12.1906445 57.0732221,9.97994727 C55.5989529,8.08493361 57.5000322,5.25883596 56.3515582,3.41309083 C55.9056373,2.69596 55.1361961,2.32963935 54.323983,2.68090573 C53.1827893,3.17450341 53.7902429,4.23560158 53.2510425,4.99880761 C52.4024277,6.20178089 52.005649,5.82542406 51.2416681,4.6261003 C50.7616206,3.87247426 51.2334777,3.05133209 49.9949096,2.72926188 C48.5615922,2.35655457 48.0924652,3.5572469 47.9627841,4.65164695 C47.8813352,5.33866923 48.2849392,6.44356164 48.2990449,7.14016392 C48.3263462,8.50417231 48.2084956,10.4630526 47.5741958,11.668763 C46.449383,13.8060136 44.8695487,13.1221847 43.1909749,11.7645629 C41.2107218,10.1633357 40.6296595,8.3800886 41.0127875,5.94768301 C41.4719041,3.03125972 41.3053663,0.239376333 37.7334484,2.06368053 C32.7127425,4.62792506 28.0537786,9.19894983 25.144827,13.9830154 C22.6999971,18.0025063 20.7757117,22.8759851 22.9416134,27.4556775 C25.1521073,32.1307136 28.8036539,36.1460988 33.9080837,37.3394921 C35.2294658,37.6483328 38.9997729,39.1501106 40.2533568,37.8905698 C42.1999383,35.9335142 37.7052371,34.1082977 36.8179454,32.9158167 C35.5598113,31.2256324 34.4805006,28.0012808 35.8614905,26.0944062 C37.6206031,23.6670187 39.4602546,25.0200786 40.9063125,26.7376343 C42.0415909,28.085676 43.6550967,31.5636693 45.4119342,28.759925 C46.621381,26.8288723 46.513086,23.6583511 49.812446,25.0433443 C54.5269225,27.0213845 54.6716193,36.1552226 55.5120438,40.3343801 C55.879246,42.1637024 57.5473544,44.3981215 58.9829469,41.8594236 C59.7719539,40.4634819 59.3460539,37.437573 59.2022672,35.9960123 C58.9055932,33.0111605 58.1225014,30.0760334 59.092607,27.1190092 C59.6536484,25.4082963 61.093336,22.9594679 63.2223811,24.2751201 C64.9469121,25.3407802 64.2284333,30.0910877 66.5745236,30.0824201 C68.6412307,30.075121 68.0774592,26.2910242 69.1777009,25.0433443 C70.8571848,23.1387506 74.0937518,24.0442879 75.0870635,26.2919365 C76.4243714,29.3169331 72.88476,31.4176885 73.0435625,34.0768205 C73.1982698,36.6684365 76.5376717,35.657063 77.9345873,34.9996931 C80.8057722,33.6493704 83.0526678,31.1467116 84.6097509,28.428731 C87.0172691,24.2253954 88.7354298,18.2068795 87.6852404,13.4031978" />
      </g>
    </g>
  </g>
</svg>

<svg>
  <g id="Clothing/Graphic-Shirt" transform="translate(0 170)">
    <defs>
      <path id="react-path-1153" d="M165.624 29.268C202.76 32.138 232 63.18 232 101.052V110H32v-8.948c0-38.217 29.775-69.48 67.393-71.855A14.107 14.107 0 0 0 99 32.5C99 44.374 113.998 54 132.5 54c18.502 0 33.5-9.626 33.5-21.5 0-1.098-.128-2.178-.376-3.232Z"/>
    </defs>
    <mask id="react-mask-1154" fill="#fff">
      <use href="#react-path-1153"/>
    </mask>
    <use id="Clothes" fill="#E6E6E6" fill-rule="evenodd" href="#react-path-1153"/>
    <g id="Color/Palette/" fill="var(--avataaar-shirt-color)" fill-rule="evenodd" mask="url(#react-mask-1154)">
      <path id="Color" d="M0 0h264v110H0z"/>
    </g>
    <g id="Clothing/Graphic/Bat" fill="#FFF" fill-rule="evenodd">
      <path id="Batman!" d="M87.685 13.403c-1.393-6.431-6.21-10.15-12.5-11.586-2.526-.577-10.913-2.387-9.607 2.408.593 2.172.263 3.964-1.553 5.766-1.77 1.755-5.231 2.2-6.952-.011-1.474-1.895.427-4.721-.721-6.567-.446-.717-1.216-1.083-2.028-.732-1.141.494-.534 1.555-1.073 2.318-.849 1.203-1.245.826-2.01-.373-.48-.754-.008-1.575-1.246-1.897-1.433-.372-1.903.828-2.032 1.923-.082.687.322 1.792.336 2.488.027 1.364-.09 3.323-.725 4.529-1.125 2.137-2.704 1.453-4.383.096-1.98-1.602-2.561-3.385-2.178-5.817.459-2.917.292-5.709-3.28-3.884-5.02 2.564-9.68 7.135-12.588 11.919-2.445 4.02-4.37 8.893-2.203 13.473 2.21 4.675 5.862 8.69 10.966 9.883 1.321.31 5.092 1.811 6.345.552 1.947-1.957-2.548-3.783-3.435-4.975-1.258-1.69-2.337-4.915-.957-6.822 1.76-2.427 3.6-1.074 5.045.644 1.136 1.348 2.75 4.826 4.506 2.022 1.21-1.931 1.101-5.102 4.4-3.717 4.715 1.978 4.86 11.112 5.7 15.291.367 1.83 2.035 4.064 3.47 1.525.79-1.396.364-4.421.22-5.863-.296-2.985-1.08-5.92-.11-8.877.562-1.71 2.001-4.16 4.13-2.844 1.725 1.066 1.006 5.816 3.353 5.807 2.066-.007 1.502-3.791 2.603-5.039 1.68-1.904 4.916-.999 5.91 1.249 1.336 3.025-2.203 5.126-2.044 7.785.154 2.591 3.494 1.58 4.89.923 2.872-1.35 5.119-3.853 6.676-6.571 2.407-4.204 4.125-10.222 3.075-15.026" transform="translate(77 58)"/>
    </g>
  </g>
</svg>
